X: 3
T: Monica's Delight
T: to the tune of Picadilly-O
C: Gordon Hitchcock
M: 6/8
L: 1/8
K: G
"G"B2d d2d |"Am"c2d "D7"d2d |"G"B2G "D7"A2F |"G"(G3 G3) :|
"Em"g2g fed |"C"e2e e3 |"Bm"d2d dcB |"Am"A2A "D7"A3 |
"G"Bcd "D7"def |"Em"g2g "Am"d2c |"G"B2G "D7"A2F |"G"G6 |
